X:1
T:Title
%%score { ( 1 3 ) | ( 2 4 ) }
L:1/8
Q:1/4=106
M:4/4
K:Ab
V:1 treble nm="Grand Piano"
V:3 treble 
V:2 bass 
V:4 bass 
V:1
 [CE]2 [CF]2 [DG]2 [CA]2 | [Ec]2 [Ec]2 [Ec][DB][CA][DF] | [CE]2 [CF]2 [DG]2 [CA]2 | A4 G2 z2 | %4
w: J.~M.~Black * * *||||
 E2 G2 B2 d2 | d2 d2 dcBA | c2 B2 F2 G2 | F4 z4 | [CE]2 [CF]2 [DG]2 [CA]2 | %9
w: |||||
 [Ec]2 [Ec]2 [Ec][DB][CA][DF] | [CE]2 [CF]2 [DG]2 [CA]2 | B4 F2 z2 | [A,FA]2 [FB]2 [Ec]2 [Ed]2 | %13
w: ||||
 e2 e2 ec[EA][FB] | c2 c2 B3 [CA] | [CA]6 z2 | [Fd]2 [Fd]>[Fd] [Fd]2 [Fd]2 | [Ec]6 z2 | %18
w: |||||
 A2 A>A B2 c2 | B6 z2 | [Gd]2 [Gd]2 c2 B2 | c2 e2 ec[EA][FB] | c2 c2 B3 [CA] | [CA]6 z2 |] %24
w: ||||||
V:2
 [A,,A,]2 [A,,A,]2 [A,,E,]2 [A,,E,]2 | [A,,A,]2 [A,,A,]2 [A,,A,][A,,A,][A,,A,][A,,A,] | %2
 [A,,A,]2 [A,,A,]2 [A,,E,]2 [A,,E,]2 | [B,,E,]6 z2 | [E,G,]2 [E,B,E]2 [E,DE]2 [E,B,E]2 | %5
 [E,B,E]2 [E,B,E]2 [E,B,E][E,A,E][E,G,E][E,F,E] | [E,A,E]2 [E,G,E]2 [E,A,D]2 [E,B,D]2 | z4 E2 z2 | %8
 [A,,A,]2 [A,,A,]2 [A,,E,]2 [A,,E,]2 | [A,,A,]2 [A,,A,]2 [A,,A,][A,,A,][A,,A,][A,,A,] | %10
 [A,,A,]2 [A,,A,]2 [A,,E,]2 [A,,E,]2 | [D,D]4- [D,A,D]2 z2 | D,2 [D,A,]2 [C,A,]2 [B,,B,]2 | %13
 [A,,CA]2[K:treble] [A,CA]2 [A,CA][K:bass][A,E][C,A,][D,A,] | [E,A,E]2 [E,A,E]2 [E,G,D]3 [A,,A,] | %15
 [A,,A,]6 z2 | [D,A,]2 [D,A,]>[D,A,] [D,A,]2 [D,A,]2 | [A,,A,]6 z2 | %18
 [F,A,C]2 [F,A,C]>[F,A,C] [E,G,E]2 [E,A,E]2 | [E,G,E]6 z2 | [E,B,]2 [E,B,]2 [E,A,E]2 [E,G,E]2 | %21
 [A,E]2[K:treble] [A,CA]2 [A,CA][K:bass][A,E][C,A,][D,A,] | [E,A,E]2 [E,A,E]2 [E,G,D]3 [A,,A,] | %23
 [A,,A,]6 z2 |] %24
V:3
 x8 | x8 | x8 | D6 z2 | x8 | x8 | x8 | [A,C]6 z2 | x8 | x8 | x8 | x8 | x8 | x8 | x8 | x8 | x8 | %17
 x8 | x8 | x8 | x8 | x8 | x8 | x8 |] %24
V:4
 x8 | x8 | x8 | x8 | x8 | x8 | x8 | A,,6 z2 | x8 | x8 | x8 | F,4 z4 | x8 | %13
 x2[K:treble] x3[K:bass] x3 | x8 | x8 | x8 | x8 | x8 | x8 | x8 | x2[K:treble] x3[K:bass] x3 | x8 | %23
 x8 |] %24

